svg/展开.svg

<svg width="24" height="24" viewBox="0 0 24 24" fill="none" xmlns="http://www.w3.org/2000/svg"><rect width="24" height="24" fill="#1E1E1E"/><rect x="-288.454" y="-79.92" width="1269.19" height="1186.9" fill="white"/><rect width="24" height="24" fill="white"/><path d="M21.9647 5.14285H19.9558C19.8192 5.14285 19.6906 5.20982 19.6103 5.31964L12.0004 15.8089L4.39062 5.31964C4.31027 5.20982 4.18169 5.14285 4.04509 5.14285H2.03616C1.86205 5.14285 1.76027 5.34107 1.86205 5.48303L11.3067 18.5036C11.6496 18.975 12.3513 18.975 12.6915 18.5036L22.1362 5.48303C22.2406 5.34107 22.1388 5.14285 21.9647 5.14285V5.14285Z" fill="#4A4A4A"/></svg>

<svg fill="none" viewBox="0 0 24 24"><path fill="#1E1E1E" d="M0 0h24v24H0z"/><path fill="white" d="M-288.454-79.92h1269.19v1186.9h-1269.19z"/><path fill="white" d="M0 0h24v24H0z"/><path fill="#4A4A4A" d="M21.965 5.143h-2.01a.43.43 0 0 0-.345.177L12 15.809 4.39 5.319a.43.43 0 0 0-.345-.176H2.036c-.174 0-.276.198-.174.34l9.445 13.02a.855.855 0 0 0 1.384 0l9.445-13.02a.213.213 0 0 0-.171-.34"/></svg>
